X: 124
T: Cantantibus organis – Maestoso
C: Franciszek Walczyński
%%abc-version 2.0
%%abcx-abcm2ps-target-version 5.9.1 (29 Sep 2008)
%%abc-creator hum2abc beta
%%abcx-conversion-date 2021/10/04 07:38:40
%%abc-edited-by Kamil Watkowski
%%abcx-initial-encoding-date 2021-08-09
%%humdrum-veritas 948016473
%%humdrum-veritas-data 1144708907
%%linebreak <none>
%%barnumbers 0
L: 1/4
M: C
N: Derived from pl-kozmzk--mzk-m-346--026_walczynski-franciszek--cantantibus-organis-maestoso.krn
Q: "Maestoso."
%%staves {1 2}
V: 1 clef=treble
V: 2 clef=bass
K: A
[V:1] fcdc/B/ & F4- | 
[V:2] A,2B,A,/G,/ & F,4- | 
[V:1] c2A2 & F4 | 
[V:2] A,2C2 & F,4 | 
[V:1] c>BAB & G2FA | 
[V:2] D2CF & E,2F,D, | 
[V:1] !breath!c2cG & G2z2 | 
[V:2] ^E2z2 & C,2z2 | 
[V:1] cB/A/GF & z4 | 
[V:2] z4 & z4 | 
[V:1] c4- & ^E2AG/F/ | 
[V:2] CG,CB,/A,/ & C,4- | 
[V:1] c2-c/^A/F/=E/ & ^E2C2- | 
[V:2] G,2F,2- & C,B,,^A,,2 | 
[V:1] EDz2 & CB,z2 | 
[V:2] !breath!F,2z2 & B,,2C,G,, | 
[V:1] z4 & z4 | 
[V:2] z4 & C,B,,/=A,,/G,,F,, | 
[V:1] cABA/G/ & C4- | 
[V:2] A,F,G,F,/^E,/ & F,,4- | 
[V:1] A2F2 & C2A,2 | 
[V:2] F,C,F,C, & F,,4- | 
[V:1] ^E2FG & B,4 | 
[V:2] =D,4 & F,,4- | 
[V:1] F4- & A,2B,A,/G,/ | 
[V:2] C,2D,C,/B,,/ & F,,4- | 
[V:1] !fermata!F4 & A,4 |]  
[V:2] C,4 & !fermata!F,,4 |]  


